svg/line/credit-card-search.svg

<svg xmlns="http://www.w3.org/2000/svg" data-name="Layer 1" viewBox="0 0 24 24"><path d="M20 17.57a4.3 4.3 0 1 0-3.67 2.06 4.37 4.37 0 0 0 2.24-.63l1.72 1.73a1 1 0 0 0 1.42 0 1 1 0 0 0 0-1.42ZM18 17a2.37 2.37 0 0 1-3.27 0 2.32 2.32 0 0 1 0-3.27 2.31 2.31 0 0 1 3.27 0A2.32 2.32 0 0 1 18 17Zm1-14H5a3 3 0 0 0-3 3v9a3 3 0 0 0 3 3h4a1 1 0 0 0 0-2H5a1 1 0 0 1-1-1V9h16v1a1 1 0 0 0 2 0V6a3 3 0 0 0-3-3Zm1 4H4V6a1 1 0 0 1 1-1h14a1 1 0 0 1 1 1Zm-10 4H7a1 1 0 0 0 0 2h3a1 1 0 0 0 0-2Z"/></svg>

<svg xmlns="http://www.w3.org/2000/svg" data-name="Layer 1" viewBox="0 0 24 24"><path d="M20,17.57a4.3,4.3,0,1,0-3.67,2.06A4.37,4.37,0,0,0,18.57,19l1.72,1.73a1,1,0,0,0,1.42,0,1,1,0,0,0,0-1.42ZM18,17a2.37,2.37,0,0,1-3.27,0,2.32,2.32,0,0,1,0-3.27,2.31,2.31,0,0,1,3.27,0A2.32,2.32,0,0,1,18,17ZM19,3H5A3,3,0,0,0,2,6v9a3,3,0,0,0,3,3H9a1,1,0,0,0,0-2H5a1,1,0,0,1-1-1V9H20v1a1,1,0,0,0,2,0V6A3,3,0,0,0,19,3Zm1,4H4V6A1,1,0,0,1,5,5H19a1,1,0,0,1,1,1ZM10,11H7a1,1,0,0,0,0,2h3a1,1,0,0,0,0-2Z"/></svg>
